img/svg/form-label-icons/address-ico.svg

<svg width="20" height="20" viewBox="0 0 20 20" fill="none" xmlns="http://www.w3.org/2000/svg">
<g clip-path="url(#clip0)">
<path d="M4.7174 7.99223C4.7174 9.81947 6.20391 11.306 8.03114 11.306C8.4619 11.306 8.81087 11.6551 8.81087 12.0857C8.81087 12.5165 8.4619 12.8654 8.03114 12.8654C5.34408 12.8654 3.15795 10.6793 3.15795 7.99223C3.15795 5.30501 5.34408 3.11889 8.03114 3.11889C10.7184 3.11889 12.9045 5.30501 12.9045 7.99223C12.9045 8.42284 12.5554 8.77196 12.1248 8.77196C11.6942 8.77196 11.345 8.42284 11.345 7.99223C11.345 6.165 9.85838 4.67834 8.03114 4.67834C6.20391 4.67834 4.7174 6.165 4.7174 7.99223V7.99223ZM5.33004 14.8887C3.32916 12.6977 1.60125 10.8053 1.59851 7.98461C1.60263 4.44183 4.48836 1.55945 8.03114 1.55945C11.5741 1.55945 14.4597 4.44183 14.4638 7.98461C14.4644 8.41506 14.8134 8.76357 15.2435 8.76341H15.2444C15.675 8.76295 16.0238 8.41338 16.0232 7.98277C16.0208 5.8499 15.1884 3.84521 13.6793 2.3378C12.1702 0.830229 10.1643 0 8.03114 0C5.89812 0 3.8922 0.830229 2.38296 2.3378C0.874022 3.84521 0.0415039 5.8499 0.0390625 7.98445C0.0405884 9.53825 0.472106 10.9961 1.35849 12.4412C2.12585 13.6926 3.12286 14.7844 4.17846 15.9404C5.21331 17.0738 6.28356 18.2457 7.1382 19.5979C7.28652 19.8326 7.53935 19.9611 7.79799 19.9611C7.94051 19.9611 8.08455 19.9221 8.21394 19.8404C8.57786 19.6103 8.68651 19.1287 8.4564 18.7646C7.52806 17.296 6.41066 16.0722 5.33004 14.8887V14.8887ZM19.7956 15.2629C19.6418 15.4312 19.4313 15.5165 19.2201 15.5165C19.0321 15.5165 18.8437 15.449 18.6941 15.3123L18.5965 15.2231V17.8032C18.5965 19.0146 17.6117 20 16.4013 20H12.0196C10.8093 20 9.8245 19.0146 9.8245 17.8032V15.2588L9.76591 15.3123C9.44807 15.603 8.95491 15.5809 8.66423 15.263C8.3737 14.9452 8.39583 14.4519 8.71367 14.1614L12.7382 10.4819C13.5887 9.70442 14.8713 9.70442 15.7217 10.4819L18.3003 12.8395C18.3288 12.8621 18.3557 12.8866 18.3807 12.9129L19.7464 14.1614C20.0642 14.4519 20.0863 14.9452 19.7956 15.2629V15.2629ZM17.037 13.7973L14.6695 11.6328C14.4189 11.4038 14.0411 11.4038 13.7906 11.6328L11.3839 13.8328V17.8032C11.3839 18.1546 11.6691 18.4405 12.0198 18.4405H16.4013C16.7518 18.4405 17.037 18.1546 17.037 17.8032V13.7973Z" fill="#4C51CC"/>
</g>
<defs>
<clipPath id="clip0">
<rect width="20" height="20" fill="white"/>
</clipPath>
</defs>
</svg>

<svg width="20" height="20" fill="none" xmlns="http://www.w3.org/2000/svg"><g clip-path="url(#clip0)"><path d="M4.717 7.992a3.317 3.317 0 003.314 3.314.78.78 0 110 1.56 4.879 4.879 0 01-4.873-4.874A4.879 4.879 0 018.031 3.12a4.879 4.879 0 014.873 4.873.78.78 0 01-1.559 0 3.318 3.318 0 00-3.314-3.314 3.318 3.318 0 00-3.314 3.314zm.613 6.897c-2-2.191-3.729-4.084-3.731-6.904A6.442 6.442 0 018.03 1.559a6.441 6.441 0 016.433 6.426.78.78 0 001.56-.002 7.94 7.94 0 00-2.345-5.645A7.94 7.94 0 008.031 0a7.94 7.94 0 00-5.648 2.338A7.941 7.941 0 00.039 7.984c.002 1.554.433 3.012 1.32 4.457.767 1.252 1.764 2.343 2.82 3.5 1.034 1.133 2.105 2.305 2.96 3.657a.779.779 0 101.317-.833c-.928-1.469-2.045-2.693-3.126-3.876zm14.466.374a.777.777 0 01-1.102.05l-.098-.09v2.58A2.198 2.198 0 0116.401 20H12.02a2.198 2.198 0 01-2.195-2.197V15.26l-.06.053a.78.78 0 11-1.051-1.15l4.024-3.68a2.2 2.2 0 012.984 0L18.3 12.84a.777.777 0 01.08.074l1.366 1.248a.78.78 0 01.05 1.102zm-2.759-1.466l-2.367-2.164a.648.648 0 00-.88 0l-2.406 2.2v3.97c0 .352.285.637.636.637h4.38c.35 0 .636-.285.636-.637v-4.006z" fill="#4C51CC"/></g><defs><clipPath id="clip0"><path fill="#fff" d="M0 0h20v20H0z"/></clipPath></defs></svg>
